X:1
T:There's Something You Should Know
T:There's Something You Should Know
T:Ines Reiger
T:- 29.10.2012 -
C:Ines Reiger
Z:All Rights Reserved
L:1/8
M:4/4
K:C
V:1 treble 
%%MIDI program 0
%%MIDI control 7 100
%%MIDI control 10 64
V:1
 G, |:"^A1" E2"Cmaj7" (3FGA"G7#9b13" (3:2:4_B2 A2 GF |"Gm7" G E4"C7b9" z G2 | %3
"Fmaj7" C2 (3CDC"E7#9b13" GF- (3FED |"Am7" C4"Gm7" z2"Gb7#11" z2 | %5
"Fmaj7" (3:2:2z2 A, (3CDC"Bb7sus4" _E C2 z |"C7" (3:2:2z2"Bb7" E (3FGA"A7b9" _BA (3GFE- | %7
"D7" E C3"Ab7#11" (3z z _E (3DCE |"Dm7" D6"G+7" z G, || %9
"^A2" E2"Cmaj7" (3FGA"G7#9b13" (3:2:4_B2 A2 GF |"Gm7" G E4"C7b9" z G2 | %11
"Fmaj7" C2 (3CDC"E7#9b13" GF- (3FED |"Am7" C4"Gm7" z2"Gb7#11" z2 | %13
"Fmaj7" (3:2:2z2 A, (3CDC"Bb7sus4" _E C2 z |"C7" (3:2:2z2"Bb7" E (3FGA"A7b9" (3_BAG- (3G z E | %15
"D7" (3:2:2E2 C- C2"G7sus4" (3z G,A, (3CDA, |"Cmaj7" C6 z A ||"Gm7""^B" _B2 (3AGF"C7" G E2 z | %18
"Gm7" _B2 (3AGF"C7" E C2 z |"Gm7" _B3 A"Db7#11" GF (3GFG |"C7sus4" E C4"C7b9" z2 G | %21
"Fm7" _A2 A/G/F/_E/"Bb7" D _B,2 G |"Fm7" _A2 (3GF_E"Bb7" D _B,2 B, | %23
"Eb7" _E2- (3[E=E]C_E"Ab7" (3:2:2_G2 E- (3EF_A |"D7sus4" G6"G+7" z G, || %25
"^A3" E2"Cmaj7" (3FGA"G7#9b13" (3:2:4_B2 A2 GF |"Gm7" G E4"C7b9" z G2 | %27
"Fmaj7" C2 (3CDC"E7#9b13" GF- (3FED |"Am7" C4"Gm7" z2"Gb7#11" z2 | %29
"Fmaj7" (3:2:2z2 A, (3CDC"Bb7sus4" _E C2 z |"C7" (3:2:2z2"Bb7" E (3FGA"A7b9" _B/A/G/F/ (3:2:2E2 E | %31
"D7" (3:2:2E2 C- C2"G7sus4" (3z G,A, (3CDA, |"Cmaj7" C6 z2 :| %33

